X: 13750
T: Forget Me Not
R: reel
M: 4/4
K: Dmajor
c|:d2fd BAFE|DB,B,B, A,B,DE|F3A d2cd|Beed egfe|
dfed BAFE|DB,B,B, A,B,DE|FAdf ecdB|1 AFEF D3c:|2 AFEF DABc||
|:d3d bdad|gdfd edBc|d3c defg|afdf e2fa|
b3f afef|defd edBF|ABdf ecdB|1 AFEF DABc:|2 AFEF D3c||

